X:1
T:O quantus luctus - Palestrina
T:#
%%score [ 1 { 2 | 3 } 4 ]
L:1/8
Q:1/4=200
M:none
K:F
V:1 treble nm="Alto" snm="A"
V:2 treble-8 nm="Tenor I" snm="T"
V:3 treble-8 
V:4 bass nm="Bass" snm="B"
V:1
"^O quantus luctus""^G. P. da Palestrina\n(1526-94)" D16 | d12 c4 | B4 A4 (G4 A4- | A2 G2 G8) ^F4 | %4
w: O|quan- tus|lu- ctus ho\- *|* * * mi-|
 (G12 A4 | B4 c4 d8) | z8 G8 |[M:4/2] c12 B4 | (A8 B8- | B4 A2 G2 A8- | A8) (G6 F2 | _E4) D8 C4 | %12
w: num, *||O|quan- tus|lu\- *||* ctus *|* ho- mi-|
 D8 z8 | z4 G4 A4 A4 | B12 G4 | G4 G4 A4 (G4- | G4 ^F2 E2 F8) | z16 | z16 | z16 | z16 | A8 A4 A4 | %22
w: num,|quan- ta prae-|ci- pu-|e la- men- ta,||||||quan- ta prae-|
 B12 G4 | G8 A8 | B12 A4 | G4 F4 (E2 F2 G4-) | (G2 F2 F4 E8) | D8 F8 | G12 E4 | E8 F4 (D4- | %30
w: ci- pu-|e la-|men- ta|mo- na- cho\- * *||rum, la-|men- ta|mo- na- cho\-|
 D4 C4) D8 | z4 G4 A4 A4 | D4 (G8 F4 | E8) D8 | z16 | z4 d4 c4 A4 | B4 G4 F4 D4 | %37
w: * * rum,|et vir- gi-|num cho\- *|* rus,||et vir- gi-|num, et vir- gi-|
 E4 (C2 D2 E2 F2 G4-) | (G4 ^F4) G8 | z8 (G8- | G4 ^F2 E2 F8) | G8 B8 | A16- | A16 || %44
w: num cho\- * * * *|* * rus:|qui\-||a pi-|um||
[M:3/1][Q:1/4=400] A16 d8 | c12 A4 B8 |[M:3/1][Q:1/4=400][Q:1/4=400][Q:1/4=400] A12 B4 G8 | %47
w: est gau-|de- re Mar-|ti- no, Mar-|
 (F12 G4 E8) | D24 | x16 x8 | x16 x8 | x16 x8 ||[Q:1/4=200] z8 F8 | G8 B8 | A16 | F16 | %56
w: ti\- * *|no,||||et|pi- um|est|fle-|
[M:4/2][Q:1/4=200][Q:1/4=200][Q:1/4=200] G8 A8 | (B12 A4 | G4 F4) E8 | (F6 E2 D8- | D4 C2 B,2) C8 | %61
w: re Mar-|ti\- *|* * num,|Mar\- * *|* * * ti-|
 D16- | D8 (G8- | G4 ^F2 E2 F8) | G8 B8 | A16- | A16 ||[M:3/1][Q:1/4=400] A16 d8 | c12 A4 B8 | %69
w: num,|* qui\-||a pi-|um||est gau-|de- re Mar-|
 A12 B4 G8 | (F12 G4 E8) | D24 | x16 x8 | x16 x8 |[M:3/1][Q:1/4=400][Q:1/4=400][Q:1/4=400] x16 x8 | %75
w: ti- no, Mar-|ti\- * *|no,||||
 z8 z8 G8 | A12 B4 c8 | B12 G4 A8 | (G12 A4 ^F8) ||[Q:1/4=200] G8 =F8 | G8 B8 | A8 z8 | F16 | %83
w: gau-|de- re Mar-|ti- no, Mar-|ti\- * *|no, et|pi- um|est|fle-|
[M:4/2][Q:1/4=200][Q:1/4=200][Q:1/4=200] G8 A8 | (B12 A4 | G4 F4) E8 | (F6 E2 D8- | %87
w: re Mar-|ti\- *|* * num,|Mar\- * *|
[Q:1/4=198] D4[Q:1/4=196] C2[Q:1/4=195] B,2[Q:1/4=192] C8) |[Q:1/4=184] D16 |[Q:1/4=174] D16- | %90
w: |ti-|num.|
[Q:1/4=170] D16 |] %91
w: |
V:2
 z8 G8- | G8 g8- | g4 f4 _e4 d4 | (c4 B4 A8 | B6 A2 G4 F4 | _E4) E4 D8 | z16 | %7
w: O|* quan\-|* tus lu- ctus|ho\- * *||* mi- num,||
[M:4/2][K:treble-8] z8 d8- | d16 | (g12 f2 e2 | f4) e4 (d6 c2 | B12 A2 G2 | B4) A4 B8 | %13
w: O||quan\- * *|* tus lu\- *||* ctus ho\-|
 (A4 G8) ^F4 | G4 d4 d4 d4 | _e12 d4 | d8 z4 d4 | d4 d4 _e8- | e4 c4 c8 | d8 _e8- | e4 d4 c4 B4 | %21
w: * * mi-|num, quan- ta prae-|ci- pu-|e, quan-|ta prae- ci\-|* pu- e|la- men\-|* ta Mo- na-|
 A8 D4 d4 | d4 d4 _e8- | e4 c4 c8 | d8 _e8- | e4 d4 c4 B4 | (A4 d8 c4 | f6 e2 d6 c2 | %28
w: cho- rum, quan-|ta prae- ci\-|* pu- e|la- men\-|* ta mo- na-|cho\- * *||
 B6 A2 B4 c4- | c2 B2 A2 G2 F8 | G8) A8 | z4 d4 c4 A4 | B4 (G2 A2 B2 c2 d4- | d4 ^c4) d8 | z16 | %35
w: ||* rum,|et vir- gi-|num cho\- * * * *|* * rus,||
 z16 | z4 c4 d4 d4 | G4 (c8 B4) | A8 G4 (B4- | B4 A4 G8) | A8 d8- | d8 d8 | f16 | e16 || %44
w: |et vir- gi-|num cho\- *|* rus, cho\-||rus: qui\-|* a|pi-|um|
[M:3/1] f16 d8 | e12 f4 g8 |[M:3/1][K:treble-8] f12 d4 _e8 | (d12 =B4 ^c8) | d24 | x16 x8 | %50
w: est gau-|de- re Mar-|ti- no, Mar-|ti\- * *|no,||
 x16 x8 | x16 x8 || d16 | d12 e4 | f16 | z8 B8- |[M:4/2][K:treble-8] B8 c8 | d16 | (e6 d2 c4 B4 | %59
w: ||et|pi- um|est|fle\-|* re|Mar-|ti\- * * *|
 A4 G4 F8 | G16 | A16) | B16 | z8 d8- | d8 d8 | f16 | e16 ||[M:3/1] f16 d8 | e12 f4 g8 | %69
w: |||num,|qui\-|* a|pi-|um|est gau-|de- re Mar-|
 f12 d4 _e8 | (d12 =B4 ^c8) | d24 | x16 x8 | x16 x8 |[M:3/1][K:treble-8] x16 x8 | z8 z8 g8 | %76
w: ti- no, Mar-|ti\- * *|no,||||gau-|
 f12 d4 _e8 | d12 B4 c8 | (B12 c4 A8) || B8 d8 | d12 e4 | f16 | z8 B8- |[M:4/2][K:treble-8] B8 c8 | %84
w: de- re Mar-|ti- no, Mar-|ti\- * *|no, et|pi- um|est|fle\-|* re|
 d16 | (e6 d2 c4 B4 | A4 G4) F4 F4 | (G16 | A16 | B16) | A16 |] %91
w: Mar-|ti\- * * *|* * num, Mar-|ti\-|||num.|
V:3
 z16 | z16 | z16 | z8 D8- | D8 d8- | d4 c4 B4 A4 | (G4 A6 G2 G4-) |[M:4/2][K:treble-8] G4 ^F4 (G8 | %8
w: |||O|* quan\-|* tus lu- ctus|ho\- * * *|* mi- num,|
 D8) z8 | G8 d8- | d4 c4 B4 A4 | (G4 F4 _E4) E4 | D8 (G6 F2) | (=E4 D4) C8 | D4 G4 G4 G4 | c12 B4 | %16
w: |O quan\-|* tus lu- ctus|ho\- * * mi-|num, ho\- *|* * mi-|num, quan- ta prae-|ci- pu-|
 A4 z2 A2 A4 A4 | B12 G4 | G8 A8 | B12 A4 | G4 F4 (E4 G4- | G4 ^F2 E2) F8 | z4 G4 G4 G4 | %23
w: e, quan- ta prae-|ci- pu-|e la-|men- ta|mo- na- cho\- *|* * * rum,|quan- ta prae-|
 c8 A4 F4- | F4 (G8 A4) | B8 G8 | z8 A8 | A4 A4 B8- | B4 G4 G8- | G4 A8 (B4- | B4 A2 G2) F4 A4- | %31
w: ci- pu- e|* la\- *|men- ta,|quan-|ta prae- ci\-|* pu- e|* la- men\-|* * * ta mo\-|
 A2 G2 (G8 ^F4) | G8 z4 =F4 | G4 A4 D4 B4 | c4 d4 G4 (c4- | c4 B4 A8 | G4 c8 =B4) | c8 z4 d4 | %38
w: * na- cho\- *|rum, et|vir- gi- num, et|vir- gi- num cho\-|||rus, et|
 c4 A4 B4 (G2 A2 | B2 c2 d8 c4) | d8 A8 | B16 | (c8 A4 d4- | d4 ^c2 =B2) c8 ||[M:3/1] d24 | %45
w: vir- gi- num cho\- *||rus: qui-|a|pi\- * *|* * * um|est|
 x16 x8 |[M:3/1][K:treble-8] x16 x8 | x16 x8 | z8 z8 G8 | A12 B4 c8 | B12 G4 A8 | (G12 E4 ^F8) || %52
w: |||gau-|de- re Mar-|ti- no, Mar-|ti\- * *|
 G8 A8 | B16 | c16 | d16 |[M:4/2][K:treble-8] z8 F8- | F8 G8- | G8 A8- | A8 (B8- | B4 A4 G8- | %61
w: no, et|pi-|um|est|fle\-|* re|* Mar\-|* ti\-||
 G4 ^F2 E2 F8) | G16 | A16 | B16 | (c8 A4 d4-) | (d4 ^c2 =B2) c8 ||[M:3/1] d24 | x16 x8 | x16 x8 | %70
w: |num,|qui-|a|pi\- * *|* * * um|est|||
 x16 x8 | z8 z8 G8 | A12 B4 c8 | B12 G4 A8 |[M:3/1][K:treble-8] (G12 E4 ^F8) | G16 d8 | d16 G8 | %77
w: |gau-|de- re Mar-|ti- no, Mar-|ti\- * *|no, gau-|de- re|
 (B4 c4 d4 e4 f8) | (d12 _e4 d8) || d8 A8 | B16 | c16 | d16 |[M:4/2][K:treble-8] z8 F8- | F8 G8- | %85
w: Mar\- * * * *|ti\- * *|no, et|pi-|um|est|fle\-|* re|
 G8 A8- | A8 (B8- | B4 A4 G8- | G4 ^F2 E2 F8 | G16) | ^F16 |] %91
w: * Mar\-|* ti\-||||num.|
V:4
 z16 | z16 | z16 | z16 | G,,16 | G,12 F,4 | _E,4 D,4 (C,4 B,,4) |[M:4/2] A,,4 A,,4 G,,4 G,4- | %8
w: ||||O|quan- tus|lu- ctus ho\- *|* mi- num, quan\-|
 G,4 ^F,4 G,6 =F,2 | _E,4 E,4 D,8 | z8 G,,8- | G,,8 G,8- | G,4 F,4 _E,4 D,4 | %13
w: * tus lu- ctus|ho- mi- num,|O|* quan\-|* tus lu- ctus|
 (C,4 B,,4 A,,4) A,,4 | G,,16 | z16 | D,8 D,4 D,4 | G,12 C,4 | C,8 (F,6 _E,2 | D,4 B,,4) C,8 | %20
w: ho\- * * mi-|num,||quan- ta prae-|ci- pu-|e la\- *|* * men-|
 B,,4 B,,4 C,8 | D,16 | G,,8 z4 C,4 | C,4 C,4 F,8 | B,,8 C,8 | B,,8 C,8 | D,8 z8 | D,8 D,4 D,4 | %28
w: ta mo- na-|cho-|rum, quan-|ta prae- ci-|pu- e|la- men-|ta,|quan- ta prae-|
 _E,12 C,4 | C,8 D,8 | _E,8 D,8 | C,4 B,,4 A,,8 | G,,8 z8 | z8 z4 G,4 | F,4 D,4 _E,4 (C,2 D,2 | %35
w: ci- pu-|e la-|men- ta|mo- na- cho-|rum,|et|vir- gi- num cho\- *|
 _E,2 F,2 G,8 F,4 | G,4 _E,4 D,8) | C,8 z4 B,,4 | C,4 D,4 G,,4 (G,4- | G,4 F,4 _E,8) | D,8 D,8 | %41
w: ||rus, et|vir- gi- num, cho\-||rus: qui-|
 G,16 | (F,12 D,4 | A,8) A,8 ||[M:3/1] D,24 | x16 x8 |[M:3/1] x16 x8 | x16 x8 | z8 z8 G,8 | %49
w: a|pi\- *|* um|est||||gau-|
 F,12 D,4 _E,8 | D,12 _E,4 C,8 | (B,,12 C,4 A,,8) || G,,8 D,8 | G,16 | F,16 | B,,16 |[M:4/2] z16 | %57
w: de- re Mar-|ti- no, Mar-|ti\- * *|no, et|pi-|um|est||
 B,,16 | C,16 | D,16 | (_E,16 | D,16) | G,,16 | D,16 | G,16 | (F,12 D,4) | A,8 A,8 ||[M:3/1] D,24 | %68
w: fle-|re|Mar-|ti\-||num,|qui-|a|pi\- *|* um|est|
 x16 x8 | x16 x8 | x16 x8 | z8 z8 G,8 | F,12 D,4 _E,8 | D,12 _E,4 C,8 |[M:3/1] (B,,12 C,4 A,,8) | %75
w: |||gau-|de- re Mar-|ti- no, Mar-|ti\- * *|
 G,,16 G,,8 | D,12 D,4 C,8 | (G,16 F,8 | G,12 C,4 D,8) || G,,8 D,8 | G,16 | F,16 | B,,16 | %83
w: no, gau-|de- re Mar-|ti\- *||no, et|pi-|um|est|
[M:4/2] z16 | B,,16 | C,16 | D,16 | _E,16 | D,8 D,8 | G,,16 | D,16 |] %91
w: |fle-|re|Mar-|ti-|num, Mar-|ti-|num.|

